X:1
T:Title
%%score { ( 1 3 ) | ( 2 4 ) }
L:1/8
Q:1/4=81
M:6/8
K:C
V:1 treble nm="Grand Piano"
V:3 treble 
V:2 bass 
V:4 bass 
V:1
 E>DC [EG]>[DF][CE] | [B,D][A,C][B,D] E>DC | [B,D][B,D][B,D] [G,CE][G,CE][A,CE] | %3
w: Elisha~A.~Hoffman * * * * *|||
 [A,C^F][A,CF][A,CF] [G,B,G]3 | [G,CE]>[F,CD][E,C][K:treble] [CEG]>[G,DF][G,CE] | %5
w: ||
 [G,B,D][G,A,C][G,B,D] [G,CE]>[G,DF][CEG] | [CFA][CGB][CGc] [CGc]>[Gd][Ge] | dcB [Ec]3 | %8
w: |||
 [Ac]>[GB][FA] [FA]>[EG][CE] | [B,D][CE][B,DF] [FA]>[EG][EG] | [Ac]>[GB][FA] [FA]>[EG]E | %11
w: |||
[M:13/16] z/ z/ z/ z/ z [B,G]/-[B,G]/-[B,G]/-[B,G]-<[B,G] |[M:3/4] E>D C[EG]- [EG]/[DF]/[CE] | %13
w: ||
 [B,D][A,C] [B,D][CE]- [CE]/[DF]/[EG] | [FA][GB] [Ac][Gc]- [Gc]/[Gd]/[Ge] | dc B [Ec]3 |] %16
w: |||
V:2
 [C,G,C]>[C,F,C][C,E,] [C,C]>[C,G,][C,G,] | [G,,G,][G,,G,][G,,G,] [C,G,C]>[C,F,C][C,E,] | %2
 [G,,G,][G,,G,][G,,G,] C,C,A,, | D,D,D, G,,3 | C,>C,C, C,>C,C, | G,,G,,G,, C,>C,C, | %6
 F,F,E, E,>[D,B,][C,C] | [F,A,F][G,E][G,D] [C,G,]3 | [C,C]>[C,C][C,C] [C,C]>[C,C][C,G,] | %9
 [G,,G,][G,,G,]G,, [C,C]>[C,C][C,C] | [F,C]>[F,C][F,C] [C,C]>[C,C][C,G,C] | %11
[M:13/16] [D,G,B,][D,C][D,C]D,-<D, z/ z |[M:3/4] [C,G,C]>[C,F,C] [C,E,][C,C]- [C,C]/[C,C]/[C,G,] | %13
 [G,,G,][G,,G,] [G,,G,][C,G,]- [C,G,]/[C,G,]/[C,C] | [F,C][F,C] [F,C][E,C]- [E,C]/[D,B,]/[C,C] | %15
 [F,A,F][G,E] [G,D] [C,G,]3 |] %16
V:3
 x6 | x6 | x6 | x6 | x3[K:treble] x3 | x6 | x6 | x6 | x6 | x6 | x6 |[M:13/16] DE^F z/ z/ z G,3/2 | %12
[M:3/4] x6 | x6 | x6 | x6 |] %16
V:4
 x6 | x6 | x6 | x6 | x6 | x6 | x6 | x6 | x6 | x6 | x6 | %11
[M:13/16] z/ z/ z/ z/ z G,,/-G,,/-G,,/-G,,-<G,, |[M:3/4] x6 | x6 | x6 | x6 |] %16

